svg/furkot/freepik/information.svg

<svg viewBox="0 0 512 512" xmlns="http://www.w3.org/2000/svg"><path d="m256.346 0c-141.563 0-256.344 114.768-256.344 256.348 0 141.585 114.781 256.349 256.344 256.349 141.585 0 256.349-114.764 256.349-256.349 0-141.58-114.764-256.348-256.349-256.348zm53.232 397.428c0 13.645-11.052 24.703-24.697 24.703h-57.031c-13.644 0-24.698-11.058-24.698-24.703v-130.694c0-13.643 11.054-24.701 24.698-24.701h57.031c13.645 0 24.697 11.058 24.697 24.701zm-53.232-198.545c-34.647 0-62.742-28.095-62.742-62.776 0-34.631 28.095-62.742 62.742-62.742 34.684 0 62.781 28.112 62.781 62.742 0 34.681-28.095 62.776-62.781 62.776z"/></svg>

<svg xmlns="http://www.w3.org/2000/svg" viewBox="0 0 512 512"><path d="M256.346 0C114.783 0 0.002 114.768 0.002 256.348 0.002 397.933 114.783 512.697 256.346 512.697 397.931 512.697 512.695 397.933 512.695 256.348 512.695 114.768 397.931 0 256.346 0ZM309.578 397.428C309.578 411.073 298.526 422.131 284.881 422.131H227.85C214.206 422.131 203.152 411.073 203.152 397.428V266.734C203.152 253.091 214.206 242.033 227.85 242.033H284.881C298.526 242.033 309.578 253.091 309.578 266.734V397.428ZM256.346 198.883C221.699 198.883 193.604 170.788 193.604 136.107 193.604 101.476 221.699 73.365 256.346 73.365 291.03 73.365 319.127 101.477 319.127 136.107 319.127 170.788 291.032 198.883 256.346 198.883Z"/></svg>
